**kern	**kern	**dynam
*part1	*part1	*part1
*staff2	*staff1	*
*I"Piano	*	*
*clefF4	*clefG2	*
*k[f#c#]	*k[f#c#]	*
=1	=1	=1
16BLL 16d	16f#LL 16b 16dd	.
16c#J 16e	16cc#J 16ee	.
8dJ 8f#	8ddJ 8ff#	.
8E 8B 8e	8g 8b 8ee	.
=	=	=
8.F#L 8.B 8.d	8.f#L 8.b 8.dd	.
16F#K 16B 16d	16f#K 16b 16dd	.
8F#J 8c#	8eJ 8f# 8a#X 8cc#	.
=	=	=
4BB 4B	4d 4f# 4b	.
=:|!	=:|!	=:|!
8d#X' 8f# 8b	8r	f
=	=	=
(16e^LL 16g 16b	8r	.
16f#J 16a	.	.
8gJ) 8b	8r	.
8BB' 8B	8f#' 8a 8b 8dd#X	.
=	=	=
(16E^LL 16G 16B	8g' 8b 8ee	.
16F#J 16A	.	.
8GJ) 8B	8r	.
8EE' 8E	8e' 8g 8b	.
=	=	=
8FF#' 8F#	(16dLL 16f# 16b	.
.	16cc#J	.
8r	8ddJ)	.
8FF#' 8F#	8e' 8f# 8a#X 8cc#	.
=	=	=
8BB' 8F#	8d' 8f# 8b	.
8r	8r	.
8r	8r	.
=||	=||	=||
*-	*-	*-
!!!system-decoration: {(s1,s2)}
